X: 66
T:Missa L'homme arm\'e sexti toni / Kyrie
N: Derived from Jos0602a-Missa_Lhomme_arme_sexti_toni-Kyrie.krn
C: Josquin des Prez
%%abc-version 2.0
%%abcx-abcm2ps-target-version 5.9.1 (29 Sep 2008)
%%abc-creator hum2abc beta
%%abcx-conversion-date 2019/02/12 16:15:41
%%abc-edited-by Jesse Rodin
%%abc-edited-by Jesse Rodin; Victoria Chang 2011/09/04
%%abcx-initial-encoding-date 2011/09/04/
%%humdrum-veritas 3466551256
%%humdrum-veritas-data 3575436828
%%linebreak <none>
%%barnumbers 0
L: 1/4
M: 3/1
Q: 1/2=120
%%staves [1 2 3 4]
V: 1 clef=treble
V: 2 clef=treble-8
V: 3 clef=treble-8
V: 4 clef=bass
K: F
[V:1] z12 | 
[V:2] F8F4 | 
[V:3] z12 | 
[V:4] z12 | 
[V:1] F8F4 | 
[V:2] F4B6A2 | 
[V:3] z12 | 
[V:4] z12 | 
[V:1] F4B6A2 | 
[V:2] A4G2F2G4 | 
[V:3] z12 | 
[V:4] z12 | 
[V:1] A6F4ED | 
[V:2] F8F2G2 | 
[V:3] z12 | 
[V:4] F,,8F,,4 | 
[V:1] C4D6C2 | 
[V:2] A4B4B,4 | 
[V:3] F8F4 | 
[V:4] F,,4B,,6A,,2 | 
[V:1] C4z4G4 | 
[V:2] C4D4B,4 | 
[V:3] F4B6A2 | 
[V:4] A,,4G,,8 | 
[V:1] A4B8 | 
[V:2] C2D2_E8 | 
[V:3] A4G8 | 
[V:4] F,,4z4_E,,4 | 
[V:1] A12 | 
[V:2] C2F4=EDC4- | 
[V:3] F4z4c4- | 
[V:4] F,,6G,,2A,,2B,,2 | 
[V:1] G4G6FE | 
[V:2] C2D2E2F2G2c2 | 
[V:3] c4c6A2 | 
[V:4] C,6D,2E,2F,2 | 
[V:1] D2C4F4ED | 
[V:2] B2A2c4F4 | 
[V:3] B2c2F4z4 | 
[V:4] G,2A,3G,F,E,D,4 | 
[V:1] E8z4 | 
[V:2] G2C3DE3FD2 | 
[V:3] c4c2c4B2 | 
[V:4] C,4z2C,2A,,2B,,2 | 
[V:1] E3FG2A6 | 
[V:2] C2c2z2c3BAG | 
[V:3] A2G4F2c4 | 
[V:4] C,3D,E,2F,2F,,4 | 
[V:1] A2GE2FD2C2DE- | 
[V:2] F2G2C2D2E4- | 
[V:3] c2c4B2A2G2- | 
[V:4] z2C,2A,,2B,,2C,4- | 
[V:1] EFG2A4z2G2 | 
[V:2] E4F4D2G2 | 
[V:3] GFc4A2B2c2 | 
[V:4] C,4z2F,,2G,,2_E,,2 | 
[V:1] A2G2B4A2G2- | 
[V:2] F2D2_E2D2F2D2 | 
[V:3] A2B4G2A2B2 | 
[V:4] F,,2G,,2_E,,2G,,2F,,2G,,2 | 
[V:1] G2F2E2F3E/D/E2 | 
[V:2] _ECc4B2c4 | 
[V:3] G2A4F2G2A2 | 
[V:4] _E,,2F,,2C,2D,2C,4 | 
[V:1] F12 ||  
[V:2] c12 ||  
[V:3] F12 ||  
[V:4] F,,12 ||  
[V:1] [M:2/1]F8 | 
[V:2] [M:2/1]F8- | 
[V:3] [M:2/1]c8- | 
[V:4] [M:2/1]z8 | 
[V:1] F6ED | 
[V:2] F8 | 
[V:3] c8- | 
[V:4] z8 | 
[V:1] E8 | 
[V:2] G8- | 
[V:3] c8- | 
[V:4] C,8- | 
[V:1] z4E4 | 
[V:2] G8 | 
[V:3] c8 | 
[V:4] C,8 | 
[V:1] F4D4 | 
[V:2] B8- | 
[V:3] d8- | 
[V:4] B,,8- | 
[V:1] F8 | 
[V:2] B8 | 
[V:3] d8 | 
[V:4] B,,8 | 
[V:1] E8 | 
[V:2] G6A2- | 
[V:3] z4c4- | 
[V:4] C,8 | 
[V:1] z8 | 
[V:2] A2GAE2F2 | 
[V:3] c4c4 | 
[V:4] A,,8 | 
[V:1] z4D4- | 
[V:2] G8- | 
[V:3] B8 | 
[V:4] G,,8- | 
[V:1] D2EFG4 | 
[V:2] G8 | 
[V:3] z4B4 | 
[V:4] G,,8 | 
[V:1] z2G2A2c2- | 
[V:2] C4F4- | 
[V:3] c8 | 
[V:4] z8 | 
[V:1] cBAGF4 | 
[V:2] F8 | 
[V:3] A8 | 
[V:4] z8 | 
[V:1] z2G3FED | 
[V:2] E8- | 
[V:3] G8 | 
[V:4] C,8- | 
[V:1] C4z2D2- | 
[V:2] E4F4 | 
[V:3] z8 | 
[V:4] C,4B,,4- | 
[V:1] D2F4ED | 
[V:2] D8 | 
[V:3] z8 | 
[V:4] B,,8 | 
[V:1] E4z2G2 | 
[V:2] C3DEFG2- | 
[V:3] z4c4- | 
[V:4] C,8 | 
[V:1] A2c4BA | 
[V:2] G2FEF4 | 
[V:3] c8 | 
[V:4] A,,8 | 
[V:1] B6AG | 
[V:2] B,6C2 | 
[V:3] d8- | 
[V:4] G,,8 | 
[V:1] F4G2A2- | 
[V:2] D4E2F2- | 
[V:3] d4c4- | 
[V:4] z8 | 
[V:1] AGG4FE | 
[V:2] F2EDC4 | 
[V:3] c8 | 
[V:4] z8 | 
[V:1] D3CG4- | 
[V:2] G4z2G2- | 
[V:3] B4G4 | 
[V:4] z8 | 
[V:1] G8 | 
[V:2] GFEDC4 | 
[V:3] B4c4 | 
[V:4] z8 | 
[V:1] A4c4 | 
[V:2] c6BA | 
[V:3] A8 | 
[V:4] z4F,4 | 
[V:1] B6AG | 
[V:2] B4_E4- | 
[V:3] G6B2- | 
[V:4] G,8- | 
[V:1] B4A4- | 
[V:2] E4F4 | 
[V:3] B2AGA2F2 | 
[V:4] G,4F,4- | 
[V:1] A2GFA4 | 
[V:2] D4F4 | 
[V:3] z2A4GF | 
[V:4] F,8 | 
[V:1] G6FE | 
[V:2] C3DEFG2 | 
[V:3] G2C2c4- | 
[V:4] E,4C,4 | 
[V:1] G4F4- | 
[V:2] C2G2A2c2- | 
[V:3] c2B2A2G2 | 
[V:4] E,4F,4 | 
[V:1] F2EDF4 | 
[V:2] cBd3A=B2 | 
[V:3] F4z2F2 | 
[V:4] D,8 | 
[V:1] !fermata!E8- | 
[V:2] c4z2G2 | 
[V:3] G2A2G2c2- | 
[V:4] C,8- | 
[V:1] E8- | 
[V:2] A2G2c4- | 
[V:3] c2B2A2G2 | 
[V:4] C,8- | 
[V:1] E8- | 
[V:2] c2B2A3G | 
[V:3] !fermata!c8- | 
[V:4] C,8- | 
[V:1] E8 ||  
[V:2] !fermata!G8 ||  
[V:3] c8 ||  
[V:4] C,8 ||  
[V:1] [M:3/1]D8D4 | 
[V:2] [M:3/1]B8B4 | 
[V:3] [M:3/1]F12 | 
[V:4] [M:3/1]B,,12- | 
[V:1] D4z2D6 | 
[V:2] F2G4FED4 | 
[V:3] B12 | 
[V:4] B,,12 | 
[V:1] E4z2E6 | 
[V:2] C2c6G2cB | 
[V:3] A4G8 | 
[V:4] C,12 | 
[V:1] F4z2F6 | 
[V:2] AGB4A4GF | 
[V:3] F8z4 | 
[V:4] D,12 | 
[V:1] G4z2G6 | 
[V:2] E2G3FEDC2c2- | 
[V:3] c8c4 | 
[V:4] C,12 | 
[V:1] A4z2A4GF | 
[V:2] cBA3GF4ED | 
[V:3] F8z4 | 
[V:4] z4D,8 | 
[V:1] G2A4GFG2A2- | 
[V:2] E2F2A4G2F2 | 
[V:3] c8c4 | 
[V:4] C,2F,4E,D,E,2F,2- | 
[V:1] AGFEF2C2D4 | 
[V:2] A8D2F2- | 
[V:3] F8z4 | 
[V:4] F,E,D,3C,A,,2B,,3A,, | 
[V:1] z2C3B,A,2G,2A,2- | 
[V:2] F2EDC4z4 | 
[V:3] z12 | 
[V:4] F,,3G,,A,,B,,C,D,E,2F,2 | 
[V:1] A,2B,4A,4G,2 | 
[V:2] z12 | 
[V:3] z12 | 
[V:4] D,3C,D,2A,,2B,,4 | 
[V:1] A,4C3DE2F2 | 
[V:2] z2c3BA2G2A2- | 
[V:3] z12 | 
[V:4] A,,4z4z4 | 
[V:1] C2D3CA,2B,4 | 
[V:2] A2B3AA4G2 | 
[V:3] z12 | 
[V:4] z12 | 
[V:1] A,2A4GFG2A2 | 
[V:2] A4z2A2G2F2 | 
[V:3] c8c4 | 
[V:4] z2F,4E,D,E,2F,2 | 
[V:1] z2G4FEF2G2 | 
[V:2] G4z2G2F2_E2 | 
[V:3] c4B8- | 
[V:4] C,2_E,4D,C,D,2E,2 | 
[V:1] z2F4EDE2F2 | 
[V:2] F4z2F2E2D2 | 
[V:3] B4A8- | 
[V:4] B,,2D,4C,B,,C,2D,2 | 
[V:1] z2E4DCD2E2 | 
[V:2] E4z2E2D2C2 | 
[V:3] A4G8- | 
[V:4] A,,2C,4B,,A,,B,,2C,2 | 
[V:1] z2D4CB,C2D2 | 
[V:2] D4z2D2C2B,2 | 
[V:3] G4F8- | 
[V:4] G,,2B,,4A,,G,,A,,2B,,2 | 
[V:1] C2c4B2A2GF | 
[V:2] F12 | 
[V:3] F4c8- | 
[V:4] F,,12 | 
[V:1] E4G8 | 
[V:2] G12 | 
[V:3] c4B8 | 
[V:4] C,3D,_E,8 | 
[V:1] F8E4 | 
[V:2] c12 | 
[V:3] A4G8 | 
[V:4] F,4C,8 | 
[V:1] F12 |]  
[V:2] A12 |]  
[V:3] F12 |]  
[V:4] F,,12 |]  



